X:1
T:Tried and True
T:William Howard Doane
T:Tried and True
T:Public Domain
T:Public Domain
T:Public Domain
C:William Howard Doane
Z:Public Domain
%%score ( 1 2 ) ( 3 4 )
L:1/8
M:none
K:F
V:1 treble 
V:2 treble 
V:3 bass 
V:4 bass 
V:1
 [Fc]2 [Fc]>"^Sprightly"[Fd] [Fc]2 [FA]2 | [CF]2 C2 [B,D]2 [DF]2 | [FA]2 [FA]2 [FA]4 | %3
w: 1.~We are a band of|mer- ry child- ren,|of glee, full|
w: 2.~Hap- py am I, the|bird is sing- ing,|and free, wild|
w: 3.~Hap- py am I, the|wind is sigh- ing,|the shade, through|
 [CG]2 [CF]2 [Ec]4 | [Fc]2 [F-c]>[Fd] [Fc]2 [FA]2 | [CF]2 C2 [B,D]2 [DB]2 | [CA]2 [CF]2 [FA]4 | %7
w: of glee, Like|the spring- * time in|its beau- ty, Glad|we, glad are|
w: and free, While|to~the song * with hearts|we e- cho, So|we, so are|
w: the shade; Sweet|is~my home * the dai-|sy mur- murs, In|glade, in the|
 [CG]2 [CE]2 [CF]4 | [B,G]2 [B,G]>[B,G] [A,F]2 [B,G]2 | [CA]2 [Fd]2 [Fc]2 [FA]2 | %10
w: we; Bright is|the bu- sy world a-|round us, Bright with|
w: we; O! there|is joy in ev- ery|blos- som, We may|
w: glade; Thus we|can say in days of|child- hood, Full of|
 [EG]2 [EG]2 [EG]2 z2 | [FA]2 [FA]2 [FA]2 z2 | [EG]2 [EG]>[EG] [DF]2 [EG]2 | %13
w: flowers, bright with|flowers, Smiles from|the sun- ny vale a-|
w: share, we may|share, While we|a- dore the hand that|
w: glee, full of|glee, Blend- ing|our hearts with na- ture’s|
 [FA]2 [Fd]2 [Fc]2 [FA]2 | [EG]2 [E-G][EG] [EG]2 z2 | [FA]2 [F=B]2 [Ec]2 z2 || %16
w: bove us, Come with~the|hours, come~with * the|hours. * *|
w: made it, Pure and|fair, pure * and|fair. * *|
w: voic- es, Blest are|we, blest * are|we. * *|
"^Refrain" [Fc]2 [Fc]>[Fd] [Fc]2 [FA]2 | [CF][CF]CC [B,D]2 [DF]2 | [FA]2 [FA]>[FA] [FA]2 [FA]2 | %19
w: |||
w: |||
w: |||
 [CG]2 [CF]2 [Ec]4 | [Fc]2 [Fc]>[Fd] [Fc]2 [CA]2 | [CF][CF]CC [B,D]2 [DB]2 | [CA]2 [CF]2 [FA]2 z2 | %23
w: ||||
w: ||||
w: ||||
 [CG]2 [CE]2 [CF]4 |] x8 |] %25
w: ||
w: ||
w: ||
V:2
 x8 | x2 C2 x4 | x8 | x8 | x8 | x2 C2 x4 | x8 | x8 | x8 | x8 | x8 | x8 | x8 | x8 | x8 | x8 || x8 | %17
w: |Full||||are||||||||||||
w: |Wild||||are||||||||||||
w: |Through||||the||||||||||||
 x2 CC x4 | x8 | x8 | x8 | x2 CC x4 | x8 | x8 |] x8 |] %25
w: ||||||||
w: ||||||||
w: ||||||||
V:3
 [F,A,]2 [F,A,]>[F,B,] [F,A,]2 [F,C]2 | [F,A,]2 [F,A,]2 (B,F,) [B,,B,]2 | x8 | %3
w: ~ ~ ~ ~ ~|~ ~ ~ * ~||
 [F,C]2 [F,C]2 [F,C]4 | [E,B,]2 [F,A,]2 [C,G,]4 | [F,A,]2 [F,-A,]>[F,B,] [F,A,]2 [F,C]2 | %6
w: ~ ~ ~|~ ~ ~|~ ~ * ~ ~|
 [F,A,]2 [F,A,]2 [B,,F,]2 [B,,F,]2 | [C,F,]2 [C,A,]2 [C,C]4 | [C,B,]2 [C,B,]2 [F,A,]4 | %9
w: ~ ~ ~ ~|~ ~ ~|~ ~ ~|
 [C,C]2 [C,C]>[C,C] [C,C]2 [C,C]2 | [F,C]2 [F,B,]2 [F,A,]2 [F,C]2 | [C,C]2 [C,C]2 [C,C]2 z2 | %12
w: ~ ~ ~ ~ ~|~ ~ ~ ~|~ ~ ~|
 [F,C]2 [F,C]2 [F,C]2 z2 | [C,C]2 [C,C]>[C,C] [C,C]2 [C,C]2 | [F,C]2 [F,B,]2 [F,A,]2 [F,C]2 | %15
w: ~ ~ ~|~ ~ ~ ~ ~|~ ~ ~ ~|
 [G,C]2 [G,C-][G,C] [G,C]2 z2 || [G,D]2 [G,D]2 [C,G,]2 z2 | [F,A,]2 [F,A,]>[F,B,] [F,A,]2 [F,C]2 | %18
w: ~ ~ ~ ~|~ We are|a band of mer- ry,|
 [F,A,][F,A,][F,A,][F,A,] [B,,F,]2 [B,,B,]2 | [F,C]2 [F,C]>[F,C] [F,C]2 [F,C]2 | %20
w: mer- ry child- ren, While to|the Sun- day school we|
 [E,B,]2 [F,A,]2 [C,G,]4 | [F,A,]2 [F,A,]>[F,B,] [F,A,]2 [F,C]2 | %22
w: cling, We are|a band of mer- ry,|
 [F,A,][F,A,][F,A,][F,A,] [B,,F,]2 [B,,F,]2 | [C,F,]2 [C,A,]2 [C,C]2 z2 |] %24
w: mer- ry child- ren, Tried and|true, tried and|
 [C,B,]2 [C,B,]2 [F,A,]4 |] %25
w: true. * *|
V:4
 x8 | x4 B,,2 x2 | x8 | x8 | x8 | x8 | x8 | x8 | x8 | x8 | x8 | x8 | x8 | x8 | x8 | x8 || x8 | x8 | %18
w: |~|||||||||||||||||
 x8 | x8 | x8 | x8 | x8 | x8 |] x8 |] %25
w: |||||||

